X: 10161
M: C|
L: 1/8
K: D
d3c edcB | A^GAB ABAF |\
d3c edcB |
|: f |\
efgf edce | defg a3a |
ageg gfdf | ecdB A3f |\
efgf edce | defg a3a |\
ageg gfdf | edcB AABc !segno!|]


